findly-builder/apps/searchassist/src/assets/icons/editor/image-vertical-active.svg

<svg width="30" height="28" viewBox="0 0 30 28" fill="none" xmlns="http://www.w3.org/2000/svg">
<path d="M0 2C0 0.895431 0.895431 0 2 0H13C14.1046 0 15 0.895431 15 2V26C15 27.1046 14.1046 28 13 28H2C0.89543 28 0 27.1046 0 26V2ZM18 15C18 14.4477 18.4477 14 19 14H29C29.5523 14 30 14.4477 30 15C30 15.5523 29.5523 16 29 16H19C18.4477 16 18 15.5523 18 15ZM18 19C18 18.4477 18.4477 18 19 18H29C29.5523 18 30 18.4477 30 19C30 19.5523 29.5523 20 29 20H19C18.4477 20 18 19.5523 18 19ZM18 23C18 22.4477 18.4477 22 19 22H29C29.5523 22 30 22.4477 30 23C30 23.5523 29.5523 24 29 24H19C18.4477 24 18 23.5523 18 23ZM18 27C18 26.4477 18.4477 26 19 26H29C29.5523 26 30 26.4477 30 27C30 27.5523 29.5523 28 29 28H19C18.4477 28 18 27.5523 18 27ZM18 2C18 0.895431 18.8954 0 20 0H28C29.1046 0 30 0.895431 30 2V3.5C30 4.60457 29.1046 5.5 28 5.5H20C18.8954 5.5 18 4.60457 18 3.5V2Z" fill="#0D6EFD"/>
<path d="M30 11C30 10.4477 29.5523 10 29 10H19C18.4477 10 18 10.4477 18 11C18 11.5523 18.4477 12 19 12H29C29.5523 12 30 11.5523 30 11Z" fill="#0D6EFD"/>
</svg>

<svg width="30" height="28" fill="none" xmlns="http://www.w3.org/2000/svg"><path d="M0 2a2 2 0 0 1 2-2h11a2 2 0 0 1 2 2v24a2 2 0 0 1-2 2H2a2 2 0 0 1-2-2V2Zm18 13a1 1 0 0 1 1-1h10a1 1 0 1 1 0 2H19a1 1 0 0 1-1-1Zm0 4a1 1 0 0 1 1-1h10a1 1 0 1 1 0 2H19a1 1 0 0 1-1-1Zm0 4a1 1 0 0 1 1-1h10a1 1 0 1 1 0 2H19a1 1 0 0 1-1-1Zm0 4a1 1 0 0 1 1-1h10a1 1 0 1 1 0 2H19a1 1 0 0 1-1-1Zm0-25a2 2 0 0 1 2-2h8a2 2 0 0 1 2 2v1.5a2 2 0 0 1-2 2h-8a2 2 0 0 1-2-2V2Zm12 9a1 1 0 0 0-1-1H19a1 1 0 1 0 0 2h10a1 1 0 0 0 1-1Z" fill="#0D6EFD"/></svg>
